assets/grades/vivid.cube
# The default grade for the 3D scene: muted colours gain saturation, a gentle contrast
# curve, and a faint cool shadow and warm highlight. Ends stay pinned so white stays white.
TITLE "toon"
LUT_3D_SIZE 17
0.0000 0.0000 0.0000
0.0616 0.0000 0.0018
0.1280 0.0000 0.0036
0.1978 0.0001 0.0053
0.2696 0.0001 0.0069
0.3424 0.0002 0.0083
0.4151 0.0003 0.0096
0.4868 0.0004 0.0107
0.5568 0.0005 0.0117
0.6244 0.0006 0.0125
0.6891 0.0007 0.0132
0.7504 0.0009 0.0137
0.8079 0.0010 0.0141
0.8613 0.0011 0.0144
0.9105 0.0012 0.0146
0.9553 0.0013 0.0148
0.9957 0.0014 0.0149
0.0000 0.0553 0.0050
0.0498 0.0523 0.0059
0.1163 0.0495 0.0071
0.1865 0.0471 0.0084
0.2588 0.0452 0.0095
0.3323 0.0436 0.0106
0.4059 0.0425 0.0116
0.4786 0.0418 0.0124
0.5496 0.0414 0.0131
0.6183 0.0415 0.0137
0.6840 0.0420 0.0142
0.7464 0.0428 0.0145
0.8049 0.0441 0.0148
0.8594 0.0457 0.0149
0.9095 0.0478 0.0150
0.9551 0.0502 0.0150
0.9962 0.0531 0.0150
0.0000 0.1153 0.0091
0.0391 0.1123 0.0096
0.1050 0.1094 0.0105
0.1754 0.1065 0.0114
0.2483 0.1041 0.0122
0.3225 0.1022 0.0129
0.3969 0.1007 0.0135
0.4706 0.0996 0.0140
0.5427 0.0990 0.0144
0.6125 0.0988 0.0147
0.6793 0.0990 0.0149
0.7427 0.0997 0.0150
0.8023 0.1008 0.0150
0.8578 0.1023 0.0150
0.9088 0.1042 0.0149
0.9553 0.1065 0.0147
0.9972 0.1093 0.0145
0.0000 0.1791 0.0122
0.0304 0.1762 0.0125
0.0949 0.1733 0.0130
0.1650 0.1704 0.0136
0.2383 0.1676 0.0140
0.3132 0.1652 0.0144
0.3885 0.1633 0.0147
0.4631 0.1619 0.0149
0.5362 0.1609 0.0150
0.6070 0.1604 0.0150
0.6750 0.1604 0.0150
0.7395 0.1608 0.0148
0.8002 0.1616 0.0146
0.8566 0.1629 0.0143
0.9086 0.1647 0.0140
0.9559 0.1668 0.0137
0.9985 0.1695 0.0134
0.0000 0.2458 0.0142
0.0237 0.2430 0.0143
0.0869 0.2402 0.0145
0.1557 0.2375 0.0148
0.2290 0.2347 0.0149
0.3045 0.2320 0.0150
0.3805 0.2297 0.0150
0.4561 0.2278 0.0149
0.5302 0.2265 0.0148
0.6021 0.2257 0.0145
0.6711 0.2253 0.0142
0.7367 0.2254 0.0139
0.7983 0.2260 0.0135
0.8558 0.2270 0.0130
0.9086 0.2285 0.0126
0.9568 0.2305 0.0121
1.0000 0.2329 0.0116
0.0000 0.3146 0.0150
0.0190 0.3119 0.0150
0.0810 0.3093 0.0150
0.1486 0.3067 0.0150
0.2207 0.3042 0.0149
0.2963 0.3016 0.0147
0.3731 0.2989 0.0145
0.4495 0.2967 0.0141
0.5246 0.2950 0.0137
0.5975 0.2938 0.0133
0.6675 0.2931 0.0128
0.7342 0.2928 0.0122
0.7969 0.2931 0.0117
0.8552 0.2938 0.0111
0.9090 0.2950 0.0105
0.9579 0.2967 0.0099
1.0000 0.2989 0.0094
0.0000 0.3847 0.0148
0.0161 0.3822 0.0147
0.0771 0.3798 0.0146
0.1435 0.3774 0.0143
0.2144 0.3750 0.0140
0.2889 0.3727 0.0136
0.3660 0.3703 0.0131
0.4433 0.3677 0.0125
0.5193 0.3656 0.0120
0.5932 0.3640 0.0113
0.6643 0.3629 0.0107
0.7319 0.3623 0.0100
0.7956 0.3622 0.0093
0.8549 0.3626 0.0086
0.9095 0.3635 0.0079
0.9592 0.3649 0.0073
1.0000 0.3668 0.0067
0.0000 0.4553 0.0136
0.0149 0.4530 0.0136
0.0749 0.4508 0.0132
0.1403 0.4487 0.0128
0.2102 0.4465 0.0123
0.2836 0.4444 0.0117
0.3597 0.4423 0.0110
0.4374 0.4401 0.0103
0.5143 0.4376 0.0096
0.5891 0.4357 0.0088
0.6612 0.4342 0.0081
0.7298 0.4332 0.0073
0.7944 0.4328 0.0065
0.8546 0.4328 0.0058
0.9101 0.4333 0.0051
0.9605 0.4344 0.0044
1.0000 0.4359 0.0038
0.0000 0.5256 0.0118
0.0153 0.5236 0.0117
0.0745 0.5217 0.0112
0.1390 0.5198 0.0106
0.2078 0.5179 0.0100
0.2802 0.5160 0.0093
0.3552 0.5141 0.0085
0.4318 0.5122 0.0077
0.5094 0.5103 0.0068
0.5851 0.5079 0.0060
0.6581 0.5061 0.0052
0.7277 0.5047 0.0043
0.7932 0.5039 0.0035
0.8543 0.5036 0.0028
0.9106 0.5037 0.0021
0.9617 0.5044 0.0014
1.0000 0.5056 0.0008
0.0019 0.5950 0.0094
0.0172 0.5933 0.0093
0.0756 0.5916 0.0087
0.1392 0.5900 0.0080
0.2071 0.5883 0.0073
0.2785 0.5867 0.0065
0.3524 0.5850 0.0057
0.4281 0.5834 0.0048
0.5046 0.5817 0.0039
0.5811 0.5801 0.0030
0.6550 0.5779 0.0021
0.7254 0.5761 0.0013
0.7919 0.5749 0.0006
0.8538 0.5742 0.0000
0.9109 0.5740 0.0000
0.9627 0.5743 0.0000
1.0000 0.5751 0.0000
0.0038 0.6629 0.0067
0.0204 0.6614 0.0066
0.0782 0.6600 0.0059
0.1410 0.6586 0.0052
0.2080 0.6572 0.0044
0.2784 0.6558 0.0036
0.3513 0.6545 0.0027
0.4259 0.6531 0.0018
0.5013 0.6517 0.0010
0.5768 0.6502 0.0001
0.6516 0.6488 0.0000
0.7229 0.6467 0.0000
0.7902 0.6452 0.0000
0.8530 0.6441 0.0000
0.9108 0.6435 0.0000
0.9633 0.6434 0.0000
1.0000 0.6438 0.0000
0.0057 0.7285 0.0040
0.0247 0.7273 0.0038
0.0820 0.7262 0.0031
0.1441 0.7251 0.0023
0.2103 0.7240 0.0016
0.2797 0.7228 0.0007
0.3516 0.7217 0.0000
0.4251 0.7205 0.0000
0.4996 0.7194 0.0000
0.5740 0.7182 0.0000
0.6478 0.7170 0.0000
0.7200 0.7158 0.0000
0.7882 0.7139 0.0000
0.8517 0.7124 0.0000
0.9103 0.7115 0.0000
0.9635 0.7110 0.0000
1.0000 0.7110 0.0000
0.0074 0.7914 0.0013
0.0302 0.7905 0.0010
0.0870 0.7897 0.0003
0.1485 0.7888 0.0000
0.2139 0.7879 0.0000
0.2824 0.7870 0.0000
0.3533 0.7861 0.0000
0.4258 0.7852 0.0000
0.4992 0.7842 0.0000
0.5726 0.7833 0.0000
0.6453 0.7823 0.0000
0.7166 0.7813 0.0000
0.7856 0.7803 0.0000
0.8500 0.7786 0.0000
0.9092 0.7773 0.0000
0.9630 0.7765 0.0000
1.0000 0.7761 0.0000
0.0088 0.8511 0.0000
0.0367 0.8504 0.0000
0.0931 0.8498 0.0000
0.1541 0.8492 0.0000
0.2187 0.8485 0.0000
0.2864 0.8478 0.0000
0.3563 0.8472 0.0000
0.4278 0.8465 0.0000
0.5001 0.8457 0.0000
0.5724 0.8450 0.0000
0.6440 0.8442 0.0000
0.7143 0.8435 0.0000
0.7824 0.8427 0.0000
0.8476 0.8419 0.0000
0.9076 0.8403 0.0000
0.9620 0.8391 0.0000
1.0000 0.8385 0.0000
0.0099 0.9070 0.0000
0.0442 0.9066 0.0000
0.1004 0.9061 0.0000
0.1608 0.9057 0.0000
0.2248 0.9053 0.0000
0.2916 0.9048 0.0000
0.3606 0.9043 0.0000
0.4311 0.9038 0.0000
0.5022 0.9033 0.0000
0.5734 0.9028 0.0000
0.6439 0.9022 0.0000
0.7131 0.9016 0.0000
0.7802 0.9010 0.0000
0.8445 0.9004 0.0000
0.9053 0.8998 0.0000
0.9604 0.8983 0.0000
1.0000 0.8974 0.0000
0.0106 0.9587 0.0000
0.0528 0.9585 0.0000
0.1087 0.9583 0.0000
0.1687 0.9580 0.0000
0.2321 0.9577 0.0000
0.2981 0.9575 0.0000
0.3662 0.9572 0.0000
0.4356 0.9568 0.0000
0.5057 0.9565 0.0000
0.5757 0.9561 0.0000
0.6451 0.9557 0.0000
0.7131 0.9553 0.0000
0.7791 0.9548 0.0000
0.8424 0.9544 0.0000
0.9023 0.9539 0.0000
0.9583 0.9535 0.0000
1.0000 0.9522 0.0000
0.0111 1.0000 0.0000
0.0624 1.0000 0.0000
0.1182 1.0000 0.0000
0.1778 1.0000 0.0000
0.2406 1.0000 0.0000
0.3059 1.0000 0.0000
0.3731 1.0000 0.0000
0.4415 1.0000 0.0000
0.5105 1.0000 0.0000
0.5794 1.0000 0.0000
0.6476 1.0000 0.0000
0.7144 1.0000 0.0000
0.7792 1.0000 0.0000
0.8414 1.0000 0.0000
0.9003 1.0000 0.0000
0.9554 1.0000 0.0000
1.0000 1.0000 0.0000
0.0000 0.0000 0.0650
0.0604 0.0000 0.0637
0.1268 0.0000 0.0619
0.1966 0.0001 0.0605
0.2685 0.0001 0.0593
0.3413 0.0002 0.0585
0.4141 0.0003 0.0578
0.4860 0.0004 0.0575
0.5561 0.0005 0.0573
0.6238 0.0006 0.0574
0.6886 0.0008 0.0578
0.7500 0.0009 0.0584
0.8076 0.0010 0.0593
0.8611 0.0011 0.0605
0.9104 0.0013 0.0621
0.9553 0.0014 0.0639
0.9957 0.0015 0.0662
0.0000 0.0543 0.0595
0.0487 0.0513 0.0574
0.1160 0.0484 0.0556
0.1871 0.0459 0.0543
0.2605 0.0438 0.0532
0.3351 0.0421 0.0525
0.4097 0.0409 0.0521
0.4835 0.0400 0.0519
0.5556 0.0395 0.0520
0.6252 0.0395 0.0524
0.6918 0.0398 0.0530
0.7549 0.0406 0.0540
0.8141 0.0417 0.0552
0.8690 0.0432 0.0567
0.9194 0.0451 0.0585
0.9652 0.0474 0.0607
0.9963 0.0501 0.0632
0.0000 0.1143 0.0539
0.0375 0.1116 0.0510
0.1040 0.1084 0.0490
0.1753 0.1054 0.0479
0.2492 0.1029 0.0472
0.3244 0.1008 0.0468
0.3999 0.0992 0.0468
0.4747 0.0980 0.0469
0.5478 0.0972 0.0474
0.6186 0.0969 0.0481
0.6863 0.0970 0.0491
0.7505 0.0975 0.0505
0.8108 0.0984 0.0521
0.8667 0.0998 0.0540
0.9181 0.1016 0.0563
0.9648 0.1038 0.0590
0.9972 0.1064 0.0621
0.0000 0.1781 0.0488
0.0282 0.1758 0.0453
0.0933 0.1727 0.0431
0.1641 0.1696 0.0409
0.2384 0.1666 0.0406
0.3143 0.1641 0.0405
0.3906 0.1620 0.0408
0.4663 0.1605 0.0413
0.5405 0.1594 0.0421
0.6123 0.1587 0.0432
0.6812 0.1585 0.0446
0.7465 0.1588 0.0463
0.8078 0.1595 0.0483
0.8648 0.1606 0.0507
0.9172 0.1622 0.0535
0.9647 0.1642 0.0566
0.9985 0.1667 0.0602
0.0000 0.2449 0.0440
0.0210 0.2430 0.0399
0.0847 0.2400 0.0377
0.1542 0.2370 0.0355
0.2282 0.2340 0.0332
0.3047 0.2311 0.0334
0.3818 0.2286 0.0340
0.4584 0.2267 0.0349
0.5336 0.2252 0.0361
0.6065 0.2242 0.0375
0.6764 0.2236 0.0393
0.7429 0.2236 0.0415
0.8053 0.2240 0.0439
0.8633 0.2249 0.0468
0.9166 0.2262 0.0500
0.9650 0.2280 0.0537
1.0000 0.2303 0.0578
0.0000 0.3137 0.0395
0.0157 0.3123 0.0349
0.0782 0.3095 0.0326
0.1464 0.3067 0.0303
0.2192 0.3038 0.0280
0.2957 0.3010 0.0256
0.3735 0.2982 0.0265
0.4510 0.2958 0.0278
0.5271 0.2939 0.0293
0.6010 0.2926 0.0312
0.6721 0.2917 0.0334
0.7396 0.2913 0.0359
0.8030 0.2914 0.0389
0.8620 0.2919 0.0422
0.9162 0.2930 0.0460
0.9655 0.2945 0.0501
1.0000 0.2965 0.0549
0.0000 0.3838 0.0352
0.0123 0.3830 0.0302
0.0736 0.3804 0.0279
0.1406 0.3777 0.0256
0.2123 0.3751 0.0233
0.2876 0.3725 0.0208
0.3656 0.3699 0.0183
0.4439 0.3671 0.0200
0.5210 0.3649 0.0219
0.5959 0.3631 0.0242
0.6680 0.3619 0.0268
0.7365 0.3611 0.0299
0.8010 0.3608 0.0333
0.8609 0.3611 0.0372
0.9161 0.3618 0.0414
0.9661 0.3630 0.0462
1.0000 0.3647 0.0515
0.0000 0.4545 0.0314
0.0106 0.4543 0.0259
0.0709 0.4518 0.0236
0.1368 0.4494 0.0214
0.2074 0.4470 0.0190
0.2816 0.4446 0.0166
0.3585 0.4423 0.0141
0.4371 0.4399 0.0116
0.5151 0.4372 0.0140
0.5910 0.4351 0.0167
0.6640 0.4334 0.0199
0.7336 0.4323 0.0234
0.7990 0.4317 0.0273
0.8599 0.4315 0.0317
0.9159 0.4319 0.0366
0.9668 0.4328 0.0420
1.0000 0.4342 0.0479
0.0000 0.5249 0.0281
0.0105 0.5253 0.0221
0.0699 0.5231 0.0199
0.1348 0.5210 0.0177
0.2043 0.5188 0.0154
0.2774 0.5166 0.0131
0.3532 0.5145 0.0107
0.4308 0.5123 0.0082
0.5093 0.5102 0.0068
0.5861 0.5077 0.0090
0.6601 0.5057 0.0126
0.7306 0.5042 0.0167
0.7970 0.5031 0.0212
0.8589 0.5026 0.0262
0.9157 0.5026 0.0317
0.9673 0.5032 0.0377
1.0000 0.5042 0.0442
0.0019 0.5944 0.0255
0.0118 0.5954 0.0191
0.0704 0.5935 0.0170
0.1344 0.5916 0.0149
0.2029 0.5897 0.0127
0.2750 0.5878 0.0104
0.3497 0.5859 0.0081
0.4262 0.5840 0.0058
0.5037 0.5821 0.0039
0.5812 0.5802 0.0030
0.6561 0.5778 0.0053
0.7276 0.5759 0.0099
0.7949 0.5745 0.0151
0.8576 0.5736 0.0207
0.9153 0.5733 0.0268
0.9677 0.5734 0.0335
1.0000 0.5740 0.0407
0.0039 0.6624 0.0239
0.0144 0.6639 0.0169
0.0723 0.6623 0.0150
0.1355 0.6606 0.0130
0.2031 0.6590 0.0109
0.2741 0.6574 0.0088
0.3478 0.6557 0.0067
0.4233 0.6541 0.0045
0.4997 0.6524 0.0024
0.5762 0.6507 0.0002
0.6518 0.6491 0.0000
0.7242 0.6468 0.0034
0.7924 0.6451 0.0091
0.8560 0.6438 0.0154
0.9145 0.6431 0.0222
0.9676 0.6428 0.0296
1.0000 0.6431 0.0376
0.0057 0.7281 0.0234
0.0182 0.7302 0.0160
0.0755 0.7288 0.0142
0.1380 0.7275 0.0123
0.2046 0.7261 0.0105
0.2747 0.7247 0.0085
0.3474 0.7233 0.0066
0.4218 0.7219 0.0047
0.4972 0.7205 0.0027
0.5726 0.7191 0.0008
0.6473 0.7176 0.0000
0.7205 0.7162 0.0000
0.7896 0.7141 0.0036
0.8540 0.7125 0.0106
0.9132 0.7114 0.0181
0.9670 0.7108 0.0263
1.0000 0.7106 0.0350
0.0074 0.7911 0.0243
0.0230 0.7937 0.0163
0.0799 0.7926 0.0147
0.1417 0.7915 0.0131
0.2075 0.7904 0.0114
0.2767 0.7892 0.0097
0.3483 0.7881 0.0081
0.4217 0.7869 0.0064
0.4960 0.7858 0.0047
0.5703 0.7846 0.0031
0.6440 0.7834 0.0016
0.7163 0.7821 0.0001
0.7862 0.7809 0.0000
0.8514 0.7790 0.0064
0.9114 0.7775 0.0147
0.9659 0.7765 0.0236
1.0000 0.7760 0.0331
0.0088 0.8509 0.0268
0.0289 0.8538 0.0182
0.0854 0.8530 0.0169
0.1465 0.8521 0.0155
0.2116 0.8512 0.0140
0.2799 0.8503 0.0126
0.3506 0.8494 0.0112
0.4229 0.8485 0.0098
0.4961 0.8476 0.0085
0.5694 0.8466 0.0072
0.6420 0.8456 0.0060
0.7132 0.8446 0.0049
0.7822 0.8436 0.0038
0.8483 0.8425 0.0028
0.9091 0.8408 0.0119
0.9642 0.8395 0.0216
1.0000 0.8387 0.0319
0.0099 0.9068 0.0309
0.0357 0.9101 0.0218
0.0919 0.9095 0.0207
0.1525 0.9089 0.0195
0.2170 0.9082 0.0184
0.2844 0.9075 0.0173
0.3541 0.9068 0.0162
0.4254 0.9061 0.0151
0.4975 0.9054 0.0142
0.5696 0.9046 0.0133
0.6411 0.9038 0.0124
0.7112 0.9030 0.0117
0.7793 0.9022 0.0110
0.8444 0.9014 0.0104
0.9061 0.9005 0.0099
0.9619 0.8990 0.0204
1.0000 0.8978 0.0315
0.0107 0.9586 0.0369
0.0436 0.9621 0.0271
0.0995 0.9617 0.0263
0.1597 0.9612 0.0254
0.2235 0.9608 0.0246
0.2901 0.9603 0.0238
0.3589 0.9598 0.0231
0.4291 0.9593 0.0224
0.5001 0.9587 0.0218
0.5711 0.9581 0.0213
0.6415 0.9575 0.0209
0.7105 0.9569 0.0205
0.7774 0.9563 0.0203
0.8416 0.9556 0.0201
0.9024 0.9550 0.0200
0.9590 0.9543 0.0199
1.0000 0.9529 0.0319
0.0111 1.0000 0.0446
0.0524 1.0000 0.0344
0.1082 1.0000 0.0338
0.1680 1.0000 0.0333
0.2312 1.0000 0.0328
0.2971 1.0000 0.0324
0.3650 1.0000 0.0320
0.4342 1.0000 0.0317
0.5041 1.0000 0.0315
0.5740 1.0000 0.0314
0.6431 1.0000 0.0314
0.7110 1.0000 0.0314
0.7768 1.0000 0.0316
0.8399 1.0000 0.0319
0.8997 1.0000 0.0322
0.9555 1.0000 0.0325
1.0000 1.0000 0.0329
0.0000 0.0000 0.1349
0.0585 0.0000 0.1334
0.1255 0.0001 0.1320
0.1954 0.0001 0.1293
0.2673 0.0002 0.1269
0.3403 0.0002 0.1248
0.4131 0.0003 0.1230
0.4851 0.0004 0.1216
0.5553 0.0006 0.1203
0.6232 0.0007 0.1194
0.6881 0.0008 0.1188
0.7496 0.0009 0.1184
0.8073 0.0011 0.1184
0.8609 0.0012 0.1188
0.9103 0.0013 0.1194
0.9553 0.0014 0.1205
0.9957 0.0015 0.1219
0.0000 0.0532 0.1290
0.0475 0.0503 0.1278
0.1148 0.0474 0.1256
0.1859 0.0450 0.1230
0.2593 0.0429 0.1208
0.3340 0.0413 0.1189
0.4087 0.0402 0.1174
0.4826 0.0394 0.1162
0.5548 0.0390 0.1153
0.6245 0.0390 0.1147
0.6913 0.0394 0.1144
0.7545 0.0402 0.1144
0.8137 0.0414 0.1147
0.8687 0.0430 0.1154
0.9193 0.0450 0.1164
0.9652 0.0474 0.1178
0.9963 0.0501 0.1196
0.0000 0.1133 0.1226
0.0364 0.1105 0.1203
0.1029 0.1074 0.1179
0.1750 0.1042 0.1155
0.2499 0.1016 0.1134
0.3262 0.0994 0.1118
0.4028 0.0976 0.1105
0.4786 0.0963 0.1094
0.5528 0.0954 0.1087
0.6245 0.0949 0.1083
0.6931 0.0948 0.1083
0.7581 0.0952 0.1085
0.8190 0.0960 0.1092
0.8754 0.0972 0.1101
0.9272 0.0989 0.1115
0.9740 0.1009 0.1132
0.9973 0.1034 0.1154
0.0000 0.1771 0.1156
0.0273 0.1747 0.1126
0.0916 0.1719 0.1094
0.1631 0.1686 0.1067
0.2383 0.1655 0.1051
0.3153 0.1628 0.1039
0.3926 0.1606 0.1030
0.4694 0.1589 0.1024
0.5446 0.1577 0.1021
0.6174 0.1569 0.1021
0.6872 0.1565 0.1025
0.7533 0.1566 0.1033
0.8154 0.1572 0.1044
0.8729 0.1582 0.1058
0.9256 0.1596 0.1077
0.9733 0.1615 0.1100
0.9986 0.1638 0.1128
0.0000 0.2439 0.1091
0.0202 0.2419 0.1055
0.0824 0.2396 0.1016
0.1525 0.2364 0.0989
0.2274 0.2332 0.0961
0.3049 0.2301 0.0952
0.3830 0.2275 0.0947
0.4607 0.2253 0.0946
0.5369 0.2237 0.0947
0.6108 0.2225 0.0952
0.6817 0.2219 0.0961
0.7489 0.2217 0.0973
0.8120 0.2219 0.0989
0.8706 0.2226 0.1009
0.9243 0.2238 0.1033
0.9730 0.2255 0.1062
1.0000 0.2276 0.1096
0.0000 0.3128 0.1031
0.0150 0.3114 0.0988
0.0753 0.3095 0.0943
0.1441 0.3064 0.0915
0.2177 0.3034 0.0887
0.2950 0.3003 0.0858
0.3739 0.2973 0.0858
0.4524 0.2948 0.0860
0.5296 0.2927 0.0867
0.6045 0.2912 0.0876
0.6765 0.2902 0.0890
0.7448 0.2896 0.0907
0.8090 0.2895 0.0928
0.8686 0.2899 0.0954
0.9233 0.2908 0.0984
0.9728 0.2922 0.1018
1.0000 0.2940 0.1058
0.0000 0.3830 0.0974
0.0117 0.3821 0.0927
0.0702 0.3808 0.0874
0.1377 0.3779 0.0847
0.2101 0.3751 0.0819
0.2862 0.3722 0.0790
0.3651 0.3694 0.0761
0.4445 0.3664 0.0769
0.5226 0.3640 0.0780
0.5985 0.3621 0.0794
0.6716 0.3606 0.0813
0.7410 0.3597 0.0836
0.8062 0.3593 0.0862
0.8668 0.3593 0.0894
0.9225 0.3599 0.0929
0.9729 0.3610 0.0970
1.0000 0.3625 0.1017
0.0000 0.4538 0.0923
0.0101 0.4535 0.0871
0.0669 0.4527 0.0812
0.1333 0.4501 0.0785
0.2045 0.4474 0.0758
0.2795 0.4448 0.0729
0.3572 0.4421 0.0701
0.4368 0.4395 0.0671
0.5158 0.4367 0.0688
0.5928 0.4343 0.0708
0.6668 0.4325 0.0732
0.7372 0.4312 0.0760
0.8035 0.4304 0.0793
0.8651 0.4301 0.0830
0.9217 0.4303 0.0872
0.9729 0.4310 0.0919
1.0000 0.4322 0.0973
0.0001 0.5243 0.0879
0.0100 0.5246 0.0822
0.0653 0.5245 0.0757
0.1306 0.5220 0.0731
0.2007 0.5196 0.0704
0.2746 0.5172 0.0677
0.3512 0.5148 0.0649
0.4297 0.5124 0.0621
0.5092 0.5100 0.0592
0.5870 0.5073 0.0618
0.6620 0.5051 0.0648
0.7335 0.5034 0.0683
0.8007 0.5022 0.0722
0.8633 0.5016 0.0766
0.9207 0.5014 0.0814
0.9728 0.5017 0.0868
1.0000 0.5025 0.0929
0.0020 0.5939 0.0843
0.0114 0.5948 0.0781
0.0652 0.5953 0.0711
0.1296 0.5931 0.0686
0.1986 0.5909 0.0661
0.2714 0.5888 0.0635
0.3470 0.5866 0.0608
0.4244 0.5845 0.0581
0.5028 0.5823 0.0555
0.5812 0.5801 0.0528
0.6572 0.5776 0.0564
0.7296 0.5755 0.0605
0.7978 0.5740 0.0651
0.8613 0.5729 0.0701
0.9196 0.5724 0.0757
0.9724 0.5723 0.0819
1.0000 0.5728 0.0886
0.0040 0.6619 0.0819
0.0141 0.6634 0.0752
0.0665 0.6644 0.0676
0.1300 0.6625 0.0653
0.1981 0.6606 0.0629
0.2698 0.6588 0.0605
0.3443 0.6569 0.0580
0.4207 0.6549 0.0555
0.4980 0.6530 0.0530
0.5754 0.6511 0.0506
0.6520 0.6492 0.0481
0.7254 0.6468 0.0529
0.7945 0.6448 0.0582
0.8589 0.6434 0.0640
0.9181 0.6425 0.0703
0.9717 0.6421 0.0772
1.0000 0.6422 0.0848
0.0059 0.7278 0.0808
0.0179 0.7298 0.0735
0.0691 0.7313 0.0654
0.1318 0.7297 0.0633
0.1990 0.7281 0.0611
0.2697 0.7265 0.0589
0.3431 0.7248 0.0566
0.4184 0.7232 0.0544
0.4947 0.7215 0.0522
0.5710 0.7198 0.0500
0.6467 0.7181 0.0478
0.7208 0.7164 0.0457
0.7908 0.7142 0.0518
0.8561 0.7124 0.0583
0.9161 0.7112 0.0654
0.9704 0.7104 0.0731
1.0000 0.7101 0.0814
0.0076 0.7908 0.0811
0.0228 0.7933 0.0733
0.0728 0.7954 0.0647
0.1348 0.7940 0.0628
0.2011 0.7927 0.0608
0.2709 0.7913 0.0589
0.3433 0.7899 0.0569
0.4175 0.7885 0.0550
0.4927 0.7871 0.0530
0.5680 0.7857 0.0512
0.6426 0.7842 0.0493
0.7158 0.7828 0.0476
0.7866 0.7813 0.0459
0.8527 0.7792 0.0532
0.9135 0.7776 0.0612
0.9686 0.7764 0.0697
1.0000 0.7758 0.0788
0.0090 0.8507 0.0831
0.0287 0.8535 0.0747
0.0776 0.8560 0.0657
0.1390 0.8549 0.0640
0.2045 0.8538 0.0623
0.2734 0.8527 0.0607
0.3447 0.8515 0.0590
0.4179 0.8504 0.0574
0.4920 0.8492 0.0558
0.5662 0.8480 0.0542
0.6398 0.8468 0.0528
0.7119 0.8456 0.0514
0.7819 0.8443 0.0501
0.8488 0.8430 0.0489
0.9104 0.8411 0.0576
0.9662 0.8397 0.0670
1.0000 0.8387 0.0769
0.0100 0.9067 0.0869
0.0356 0.9099 0.0779
0.0834 0.9127 0.0684
0.1442 0.9118 0.0670
0.2090 0.9110 0.0657
0.2770 0.9101 0.0643
0.3475 0.9092 0.0630
0.4195 0.9082 0.0617
0.4925 0.9073 0.0605
0.5656 0.9063 0.0593
0.6381 0.9053 0.0583
0.7092 0.9043 0.0573
0.7781 0.9032 0.0564
0.8442 0.9022 0.0556
0.9066 0.9011 0.0548
0.9632 0.8994 0.0651
1.0000 0.8981 0.0759
0.0108 0.9585 0.0926
0.0435 0.9620 0.0830
0.0902 0.9650 0.0730
0.1506 0.9643 0.0720
0.2148 0.9637 0.0709
0.2820 0.9630 0.0699
0.3514 0.9623 0.0690
0.4225 0.9615 0.0681
0.4943 0.9608 0.0673
0.5663 0.9600 0.0665
0.6376 0.9592 0.0659
0.7076 0.9584 0.0653
0.7755 0.9575 0.0649
0.8406 0.9567 0.0645
0.9022 0.9558 0.0642
0.9596 0.9550 0.0639
1.0000 0.9534 0.0756
0.0112 1.0000 0.1002
0.0524 1.0000 0.0901
0.0982 1.0000 0.0797
0.1582 1.0000 0.0790
0.2217 1.0000 0.0782
0.2882 1.0000 0.0776
0.3567 1.0000 0.0770
0.4268 1.0000 0.0765
0.4976 1.0000 0.0761
0.5684 1.0000 0.0757
0.6386 1.0000 0.0755
0.7074 1.0000 0.0754
0.7742 1.0000 0.0754
0.8382 1.0000 0.0754
0.8989 1.0000 0.0755
0.9554 1.0000 0.0757
1.0000 1.0000 0.0759
0.0000 0.0000 0.2080
0.0568 0.0000 0.2065
0.1229 0.0001 0.2050
0.1942 0.0001 0.2036
0.2662 0.0002 0.1998
0.3392 0.0003 0.1964
0.4122 0.0004 0.1934
0.4842 0.0005 0.1907
0.5546 0.0006 0.1883
0.6225 0.0007 0.1862
0.6875 0.0009 0.1844
0.7491 0.0010 0.1830
0.8070 0.0011 0.1820
0.8607 0.0012 0.1813
0.9102 0.0014 0.1810
0.9552 0.0015 0.1810
0.9958 0.0016 0.1815
0.0000 0.0522 0.2020
0.0465 0.0495 0.2018
0.1129 0.0467 0.1997
0.1846 0.0441 0.1975
0.2582 0.0421 0.1940
0.3329 0.0406 0.1909
0.4077 0.0395 0.1882
0.4817 0.0387 0.1857
0.5540 0.0384 0.1837
0.6238 0.0385 0.1820
0.6907 0.0390 0.1806
0.7540 0.0399 0.1795
0.8134 0.0411 0.1789
0.8685 0.0428 0.1786
0.9191 0.0448 0.1787
0.9651 0.0473 0.1791
