assets/grades/vivid.cube
# The default grade for the 3D scene: muted colours gain saturation, a gentle contrast
# curve, and a faint cool shadow and warm highlight. Ends stay pinned so white stays white.
TITLE "toon"
LUT_3D_SIZE 5
0.0000 0.0000 0.0000
0.2696 0.0001 0.0069
0.5568 0.0005 0.0117
0.8079 0.0010 0.0141
0.9957 0.0014 0.0149
0.0000 0.2458 0.0142
0.2290 0.2347 0.0149
0.5302 0.2265 0.0148
0.7983 0.2260 0.0135
1.0000 0.2329 0.0116
0.0000 0.5256 0.0118
0.2078 0.5179 0.0100
0.5094 0.5103 0.0068
0.7932 0.5039 0.0035
1.0000 0.5056 0.0008
0.0074 0.7914 0.0013
0.2139 0.7879 0.0000
0.4992 0.7842 0.0000
0.7856 0.7803 0.0000
1.0000 0.7761 0.0000
0.0111 1.0000 0.0000
0.2406 1.0000 0.0000
0.5105 1.0000 0.0000
0.7792 1.0000 0.0000
1.0000 1.0000 0.0000
0.0000 0.0000 0.2828
0.2650 0.0002 0.2770
0.5538 0.0006 0.2602
0.8067 0.0012 0.2491
0.9959 0.0016 0.2444
0.0000 0.2421 0.2554
0.2253 0.2310 0.2444
0.5430 0.2203 0.2325
0.8251 0.2173 0.2271
1.0000 0.2216 0.2293
0.0004 0.5230 0.2226
0.1932 0.5207 0.2006
0.5084 0.5090 0.1863
0.8077 0.4999 0.1916
1.0000 0.4988 0.2054
0.0079 0.7903 0.2081
0.1880 0.7968 0.1769
0.4855 0.7893 0.1667
0.7870 0.7816 0.1572
1.0000 0.7748 0.1846
0.0112 1.0000 0.2224
0.2025 1.0000 0.1834
0.4839 1.0000 0.1792
0.7684 1.0000 0.1767
1.0000 1.0000 0.1754
0.0000 0.0001 0.5771
0.2488 0.0003 0.5738
0.5509 0.0008 0.5691
0.8056 0.0014 0.5385
0.9962 0.0019 0.5150
0.0000 0.2358 0.5591
0.2217 0.2274 0.5690
0.5394 0.2167 0.5558
0.8233 0.2150 0.5317
1.0000 0.2206 0.5160
0.0012 0.5204 0.5267
0.1902 0.5168 0.5207
0.5050 0.5050 0.5050
0.8197 0.4931 0.4892
1.0000 0.4892 0.4829
0.0085 0.7891 0.4936
0.1860 0.7943 0.4775
0.4692 0.7918 0.4528
0.7858 0.7801 0.4385
1.0000 0.7708 0.4475
0.0112 1.0000 0.4925
0.2010 1.0000 0.4681
0.4544 1.0000 0.4362
0.7546 1.0000 0.4296
1.0000 1.0000 0.4245
0.0000 0.0001 0.8268
0.2355 0.0004 0.8273
0.5217 0.0010 0.8265
0.8046 0.0016 0.8237
0.9966 0.0021 0.7855
0.0000 0.2321 0.8223
0.2208 0.2263 0.8507
0.5233 0.2195 0.8421
0.8215 0.2127 0.8325
1.0000 0.2195 0.8017
0.0017 0.5109 0.8043
0.2022 0.5101 0.8183
0.5016 0.5010 0.8237
0.8166 0.4890 0.8091
1.0000 0.4865 0.7869
0.0091 0.7879 0.7802
0.1840 0.7918 0.7819
0.4652 0.7879 0.7757
0.7818 0.7761 0.7627
1.0000 0.7641 0.7507
0.0112 1.0000 0.7627
0.1995 1.0000 0.7570
0.4509 1.0000 0.7445
0.7378 1.0000 0.7258
1.0000 1.0000 0.7180
0.0000 0.0002 1.0000
0.2251 0.0005 1.0000
0.4954 0.0010 1.0000
0.7666 0.0017 1.0000
0.9971 0.0023 1.0000
0.0000 0.2311 1.0000
0.2225 0.2278 1.0000
0.5098 0.2247 1.0000
0.7957 0.2217 1.0000
1.0000 0.2184 1.0000
0.0021 0.5042 1.0000
0.2167 0.5061 1.0000
0.5006 0.4997 1.0000
0.8019 0.4918 0.9997
1.0000 0.4837 0.9976
0.0093 0.7765 0.9977
0.2105 0.7829 0.9954
0.4778 0.7814 0.9932
0.7778 0.7720 0.9919
1.0000 0.7600 0.9916
0.0110 1.0000 0.9918
0.1978 1.0000 0.9916
0.4474 1.0000 0.9925
0.7326 1.0000 0.9953
1.0000 1.0000 1.0000
