assets/grades/vivid.cube
# The default grade for the 3D scene: muted colours gain saturation, a gentle contrast
# curve, and a faint cool shadow and warm highlight. Ends stay pinned so white stays white.
TITLE "toon"
LUT_3D_SIZE 9
0.0000 0.0000 0.0000
0.1280 0.0000 0.0036
0.2696 0.0001 0.0069
0.4151 0.0003 0.0096
0.5568 0.0005 0.0117
0.6891 0.0007 0.0132
0.8079 0.0010 0.0141
0.9105 0.0012 0.0146
0.9957 0.0014 0.0149
0.0000 0.1153 0.0091
0.1050 0.1094 0.0105
0.2483 0.1041 0.0122
0.3969 0.1007 0.0135
0.5427 0.0990 0.0144
0.6793 0.0990 0.0149
0.8023 0.1008 0.0150
0.9088 0.1042 0.0149
0.9972 0.1093 0.0145
0.0000 0.2458 0.0142
0.0869 0.2402 0.0145
0.2290 0.2347 0.0149
0.3805 0.2297 0.0150
0.5302 0.2265 0.0148
0.6711 0.2253 0.0142
0.7983 0.2260 0.0135
0.9086 0.2285 0.0126
1.0000 0.2329 0.0116
0.0000 0.3847 0.0148
0.0771 0.3798 0.0146
0.2144 0.3750 0.0140
0.3660 0.3703 0.0131
0.5193 0.3656 0.0120
0.6643 0.3629 0.0107
0.7956 0.3622 0.0093
0.9095 0.3635 0.0079
1.0000 0.3668 0.0067
0.0000 0.5256 0.0118
0.0745 0.5217 0.0112
0.2078 0.5179 0.0100
0.3552 0.5141 0.0085
0.5094 0.5103 0.0068
0.6581 0.5061 0.0052
0.7932 0.5039 0.0035
0.9106 0.5037 0.0021
1.0000 0.5056 0.0008
0.0038 0.6629 0.0067
0.0782 0.6600 0.0059
0.2080 0.6572 0.0044
0.3513 0.6545 0.0027
0.5013 0.6517 0.0010
0.6516 0.6488 0.0000
0.7902 0.6452 0.0000
0.9108 0.6435 0.0000
1.0000 0.6438 0.0000
0.0074 0.7914 0.0013
0.0870 0.7897 0.0003
0.2139 0.7879 0.0000
0.3533 0.7861 0.0000
0.4992 0.7842 0.0000
0.6453 0.7823 0.0000
0.7856 0.7803 0.0000
0.9092 0.7773 0.0000
1.0000 0.7761 0.0000
0.0099 0.9070 0.0000
0.1004 0.9061 0.0000
0.2248 0.9053 0.0000
0.3606 0.9043 0.0000
0.5022 0.9033 0.0000
0.6439 0.9022 0.0000
0.7802 0.9010 0.0000
0.9053 0.8998 0.0000
1.0000 0.8974 0.0000
0.0111 1.0000 0.0000
0.1182 1.0000 0.0000
0.2406 1.0000 0.0000
0.3731 1.0000 0.0000
0.5105 1.0000 0.0000
0.6476 1.0000 0.0000
0.7792 1.0000 0.0000
0.9003 1.0000 0.0000
1.0000 1.0000 0.0000
0.0000 0.0000 0.1349
0.1255 0.0001 0.1320
0.2673 0.0002 0.1269
0.4131 0.0003 0.1230
0.5553 0.0006 0.1203
0.6881 0.0008 0.1188
0.8073 0.0011 0.1184
0.9103 0.0013 0.1194
0.9957 0.0015 0.1219
0.0000 0.1133 0.1226
0.1029 0.1074 0.1179
0.2499 0.1016 0.1134
0.4028 0.0976 0.1105
0.5528 0.0954 0.1087
0.6931 0.0948 0.1083
0.8190 0.0960 0.1092
0.9272 0.0989 0.1115
0.9973 0.1034 0.1154
0.0000 0.2439 0.1091
0.0824 0.2396 0.1016
0.2274 0.2332 0.0961
0.3830 0.2275 0.0947
0.5369 0.2237 0.0947
0.6817 0.2219 0.0961
0.8120 0.2219 0.0989
0.9243 0.2238 0.1033
1.0000 0.2276 0.1096
0.0000 0.3830 0.0974
0.0702 0.3808 0.0874
0.2101 0.3751 0.0819
0.3651 0.3694 0.0761
0.5226 0.3640 0.0780
0.6716 0.3606 0.0813
0.8062 0.3593 0.0862
0.9225 0.3599 0.0929
1.0000 0.3625 0.1017
0.0001 0.5243 0.0879
0.0653 0.5245 0.0757
0.2007 0.5196 0.0704
0.3512 0.5148 0.0649
0.5092 0.5100 0.0592
0.6620 0.5051 0.0648
0.8007 0.5022 0.0722
0.9207 0.5014 0.0814
1.0000 0.5025 0.0929
0.0040 0.6619 0.0819
0.0665 0.6644 0.0676
0.1981 0.6606 0.0629
0.3443 0.6569 0.0580
0.4980 0.6530 0.0530
0.6520 0.6492 0.0481
0.7945 0.6448 0.0582
0.9181 0.6425 0.0703
1.0000 0.6422 0.0848
0.0076 0.7908 0.0811
0.0728 0.7954 0.0647
0.2011 0.7927 0.0608
0.3433 0.7899 0.0569
0.4927 0.7871 0.0530
0.6426 0.7842 0.0493
0.7866 0.7813 0.0459
0.9135 0.7776 0.0612
1.0000 0.7758 0.0788
0.0100 0.9067 0.0869
0.0834 0.9127 0.0684
0.2090 0.9110 0.0657
0.3475 0.9092 0.0630
0.4925 0.9073 0.0605
0.6381 0.9053 0.0583
0.7781 0.9032 0.0564
0.9066 0.9011 0.0548
1.0000 0.8981 0.0759
0.0112 1.0000 0.1002
0.0982 1.0000 0.0797
0.2217 1.0000 0.0782
0.3567 1.0000 0.0770
0.4976 1.0000 0.0761
0.6386 1.0000 0.0755
0.7742 1.0000 0.0754
0.8989 1.0000 0.0755
1.0000 1.0000 0.0759
0.0000 0.0000 0.2828
0.1204 0.0001 0.2799
0.2650 0.0002 0.2770
0.4112 0.0004 0.2679
0.5538 0.0006 0.2602
0.6870 0.0009 0.2539
0.8067 0.0012 0.2491
0.9101 0.0014 0.2459
0.9959 0.0016 0.2444
0.0000 0.1107 0.2707
0.1007 0.1054 0.2703
0.2475 0.0996 0.2650
0.4007 0.0959 0.2570
0.5511 0.0940 0.2507
0.6919 0.0938 0.2458
0.8183 0.0953 0.2425
0.9268 0.0984 0.2409
0.9975 0.1032 0.2411
0.0000 0.2421 0.2554
0.0805 0.2374 0.2509
0.2253 0.2310 0.2444
0.3849 0.2247 0.2376
0.5430 0.2203 0.2325
0.6917 0.2178 0.2289
0.8251 0.2173 0.2271
0.9392 0.2185 0.2271
1.0000 0.2216 0.2293
0.0000 0.3814 0.2374
0.0688 0.3789 0.2302
0.2053 0.3745 0.2206
0.3637 0.3677 0.2131
0.5253 0.3617 0.2103
0.6783 0.3577 0.2093
0.8163 0.3557 0.2100
0.9348 0.3556 0.2127
1.0000 0.3575 0.2178
0.0004 0.5230 0.2226
0.0643 0.5228 0.2128
0.1932 0.5207 0.2006
0.3468 0.5149 0.1935
0.5084 0.5090 0.1863
0.6654 0.5034 0.1880
0.8077 0.4999 0.1916
0.9303 0.4984 0.1973
1.0000 0.4988 0.2054
0.0044 0.6610 0.2123
0.0658 0.6631 0.2001
0.1878 0.6634 0.1856
0.3368 0.6586 0.1793
0.4941 0.6538 0.1729
0.6520 0.6488 0.1667
0.7983 0.6439 0.1735
0.9248 0.6408 0.1825
1.0000 0.6398 0.1939
0.0079 0.7903 0.2081
0.0723 0.7945 0.1936
0.1880 0.7968 0.1769
0.3327 0.7931 0.1718
0.4855 0.7893 0.1667
0.6393 0.7855 0.1618
0.7870 0.7816 0.1572
0.9172 0.7772 0.1697
1.0000 0.7748 0.1846
0.0102 0.9064 0.2112
0.0830 0.9121 0.1945
0.1929 0.9160 0.1759
0.3337 0.9134 0.1722
0.4821 0.9106 0.1687
0.6315 0.9078 0.1654
0.7754 0.9048 0.1625
0.9073 0.9018 0.1599
1.0000 0.8983 0.1785
0.0112 1.0000 0.2224
0.0979 1.0000 0.2037
0.2025 1.0000 0.1834
0.3398 1.0000 0.1811
0.4839 1.0000 0.1792
0.6288 1.0000 0.1777
0.7684 1.0000 0.1767
0.8967 1.0000 0.1759
1.0000 1.0000 0.1754
0.0000 0.0000 0.4329
0.1159 0.0001 0.4305
0.2566 0.0003 0.4280
0.4093 0.0005 0.4252
0.5523 0.0007 0.4123
0.6860 0.0010 0.4009
0.8061 0.0013 0.3912
0.9099 0.0015 0.3833
0.9960 0.0017 0.3771
0.0000 0.1087 0.4226
0.0991 0.1040 0.4276
0.2422 0.0991 0.4227
0.3986 0.0943 0.4176
0.5494 0.0927 0.4061
0.6907 0.0928 0.3964
0.8175 0.0945 0.3883
0.9265 0.0980 0.3821
0.9978 0.1030 0.3779
0.0000 0.2386 0.4092
0.0820 0.2346 0.4098
0.2231 0.2288 0.4082
0.3827 0.2225 0.4009
0.5412 0.2185 0.3909
0.6903 0.2164 0.3826
0.8242 0.2161 0.3762
0.9387 0.2177 0.3717
1.0000 0.2211 0.3696
0.0000 0.3798 0.3917
0.0674 0.3769 0.3883
0.2033 0.3722 0.3825
0.3616 0.3655 0.3744
0.5274 0.3588 0.3660
0.6844 0.3541 0.3595
0.8257 0.3514 0.3550
0.9463 0.3506 0.3526
1.0000 0.3518 0.3528
0.0008 0.5217 0.3714
0.0632 0.5212 0.3653
0.1917 0.5187 0.3566
0.3417 0.5143 0.3456
0.5071 0.5074 0.3369
0.6681 0.5011 0.3335
0.8140 0.4968 0.3322
0.9392 0.4946 0.3331
1.0000 0.4944 0.3366
0.0048 0.6600 0.3562
0.0651 0.6619 0.3476
0.1866 0.6618 0.3363
0.3287 0.6597 0.3229
0.4895 0.6538 0.3152
0.6512 0.6479 0.3075
0.8013 0.6422 0.3098
0.9309 0.6385 0.3143
1.0000 0.6367 0.3213
0.0082 0.7897 0.3476
0.0717 0.7936 0.3366
0.1870 0.7956 0.3231
0.3215 0.7956 0.3076
0.4777 0.7909 0.3012
0.6353 0.7861 0.2951
0.7867 0.7812 0.2892
0.9203 0.7762 0.2976
1.0000 0.7731 0.3084
0.0104 0.9061 0.3470
0.0826 0.9115 0.3336
0.1920 0.9151 0.3181
0.3193 0.9170 0.3008
0.4709 0.9134 0.2961
0.6242 0.9097 0.2918
0.7720 0.9058 0.2878
0.9073 0.9020 0.2841
1.0000 0.8978 0.2988
0.0112 1.0000 0.3548
0.0976 1.0000 0.3394
0.2018 1.0000 0.3221
0.3222 1.0000 0.3030
0.4695 1.0000 0.3001
0.6183 1.0000 0.2976
0.7619 1.0000 0.2955
0.8939 1.0000 0.2938
1.0000 1.0000 0.2923
0.0000 0.0001 0.5771
0.1120 0.0002 0.5755
0.2488 0.0003 0.5738
0.3974 0.0006 0.5717
0.5509 0.0008 0.5691
0.6850 0.0011 0.5530
0.8056 0.0014 0.5385
0.9098 0.0016 0.5258
0.9962 0.0019 0.5150
0.0000 0.1074 0.5697
0.0981 0.1032 0.5801
0.2376 0.0992 0.5761
0.3901 0.0953 0.5718
0.5478 0.0914 0.5670
0.6896 0.0917 0.5525
0.8168 0.0938 0.5398
0.9263 0.0975 0.5289
0.9981 0.1029 0.5200
0.0000 0.2358 0.5591
0.0841 0.2325 0.5652
0.2217 0.2274 0.5690
0.3774 0.2220 0.5626
0.5394 0.2167 0.5558
0.6889 0.2149 0.5428
0.8233 0.2150 0.5317
0.9383 0.2169 0.5226
1.0000 0.2206 0.5160
0.0000 0.3755 0.5446
0.0724 0.3733 0.5466
0.2053 0.3692 0.5462
0.3596 0.3632 0.5434
0.5253 0.3565 0.5348
0.6828 0.3521 0.5236
0.8245 0.3498 0.5145
0.9456 0.3494 0.5075
1.0000 0.3509 0.5033
0.0012 0.5204 0.5267
0.0623 0.5196 0.5251
0.1902 0.5168 0.5207
0.3398 0.5119 0.5140
0.5050 0.5050 0.5050
0.6702 0.4980 0.4960
0.8197 0.4931 0.4892
0.9475 0.4902 0.4846
1.0000 0.4892 0.4829
0.0052 0.6591 0.5067
0.0644 0.6606 0.5025
0.1854 0.6601 0.4954
0.3270 0.6577 0.4862
0.4843 0.6531 0.4748
0.6498 0.6462 0.4660
0.8038 0.6398 0.4629
0.9363 0.6354 0.4621
1.0000 0.6330 0.4639
0.0085 0.7891 0.4936
0.0712 0.7926 0.4869
0.1860 0.7943 0.4775
0.3200 0.7940 0.4661
0.4692 0.7918 0.4528
0.6306 0.7860 0.4455
0.7858 0.7801 0.4385
0.9228 0.7745 0.4418
1.0000 0.7708 0.4475
0.0106 0.9058 0.4887
0.0822 0.9109 0.4796
0.1912 0.9142 0.4683
0.3179 0.9158 0.4550
0.4591 0.9155 0.4399
0.6161 0.9109 0.4344
0.7678 0.9062 0.4294
0.9066 0.9015 0.4246
1.0000 0.8968 0.4344
0.0112 1.0000 0.4925
0.0973 1.0000 0.4813
0.2010 1.0000 0.4681
0.3210 1.0000 0.4531
0.4544 1.0000 0.4362
0.6070 1.0000 0.4327
0.7546 1.0000 0.4296
0.8904 1.0000 0.4270
1.0000 1.0000 0.4245
0.0000 0.0001 0.7097
0.1088 0.0002 0.7089
0.2418 0.0004 0.7082
0.3864 0.0006 0.7071
0.5360 0.0009 0.7054
0.6841 0.0012 0.7033
0.8051 0.0015 0.6848
0.9097 0.0018 0.6679
0.9964 0.0020 0.6528
0.0000 0.1066 0.7056
0.0977 0.1030 0.7209
0.2337 0.0999 0.7179
0.3822 0.0968 0.7146
0.5362 0.0937 0.7110
0.6884 0.0907 0.7069
0.8162 0.0931 0.6901
0.9260 0.0971 0.6750
0.9984 0.1027 0.6619
0.0000 0.2336 0.6984
0.0868 0.2310 0.7095
0.2210 0.2265 0.7184
0.3729 0.2221 0.7131
0.5310 0.2178 0.7074
0.6876 0.2134 0.7015
0.8224 0.2138 0.6863
0.9379 0.2160 0.6730
1.0000 0.2200 0.6621
0.0000 0.3719 0.6873
0.0780 0.3704 0.6946
0.2078 0.3670 0.6994
0.3582 0.3616 0.7019
0.5201 0.3559 0.6945
0.6811 0.3502 0.6870
0.8234 0.3482 0.6737
0.9449 0.3481 0.6624
1.0000 0.3499 0.6538
0.0015 0.5153 0.6731
0.0706 0.5152 0.6767
0.1959 0.5131 0.6777
0.3418 0.5089 0.6765
0.5029 0.5026 0.6731
0.6682 0.4957 0.6643
0.8181 0.4911 0.6532
0.9464 0.4885 0.6443
1.0000 0.4879 0.6382
0.0056 0.6582 0.6572
0.0637 0.6593 0.6574
0.1842 0.6585 0.6549
0.3254 0.6557 0.6503
0.4821 0.6508 0.6435
0.6476 0.6438 0.6349
0.8056 0.6367 0.6264
0.9412 0.6316 0.6202
1.0000 0.6285 0.6167
0.0088 0.7885 0.6399
0.0707 0.7917 0.6377
0.1850 0.7930 0.6330
0.3185 0.7924 0.6262
0.4672 0.7899 0.6175
0.6252 0.7853 0.6069
0.7841 0.7784 0.5991
0.9247 0.7721 0.5970
1.0000 0.7678 0.5972
0.0108 0.9055 0.6307
0.0817 0.9103 0.6262
0.1903 0.9133 0.6195
0.3166 0.9145 0.6110
0.4572 0.9140 0.6005
0.6073 0.9116 0.5884
0.7630 0.9060 0.5824
0.9053 0.9004 0.5768
1.0000 0.8951 0.5812
0.0112 1.0000 0.6301
0.0969 1.0000 0.6236
0.2003 1.0000 0.6152
0.3197 1.0000 0.6048
0.4527 1.0000 0.5927
0.5949 1.0000 0.5790
0.7466 1.0000 0.5751
0.8862 1.0000 0.5716
1.0000 1.0000 0.5683
0.0000 0.0001 0.8268
0.1063 0.0002 0.8271
0.2355 0.0004 0.8273
0.3760 0.0007 0.8271
0.5217 0.0010 0.8265
0.6667 0.0013 0.8253
0.8046 0.0016 0.8237
0.9096 0.0019 0.8038
0.9966 0.0021 0.7855
0.0000 0.1064 0.8261
0.0980 0.1034 0.8453
0.2305 0.1011 0.8434
0.3751 0.0989 0.8412
0.5252 0.0967 0.8386
0.6742 0.0945 0.8357
0.8155 0.0923 0.8324
0.9257 0.0966 0.8143
0.9988 0.1026 0.7978
0.0000 0.2321 0.8223
0.0901 0.2301 0.8376
0.2208 0.2263 0.8507
0.3690 0.2229 0.8466
0.5233 0.2195 0.8421
0.6765 0.2161 0.8374
0.8215 0.2127 0.8325
0.9374 0.2152 0.8161
1.0000 0.2195 0.8017
0.0000 0.3689 0.8148
0.0842 0.3681 0.8265
0.2110 0.3654 0.8357
0.3576 0.3607 0.8428
0.5156 0.3560 0.8368
0.6731 0.3513 0.8306
0.8222 0.3466 0.8244
0.9442 0.3469 0.8099
1.0000 0.3490 0.7977
0.0017 0.5109 0.8043
0.0795 0.5115 0.8125
0.2022 0.5101 0.8183
0.3446 0.5066 0.8220
0.5016 0.5010 0.8237
0.6631 0.4950 0.8164
0.8166 0.4890 0.8091
0.9453 0.4868 0.7968
1.0000 0.4865 0.7869
0.0058 0.6525 0.7922
0.0752 0.6543 0.7972
0.1936 0.6542 0.7998
0.3314 0.6520 0.8004
0.4841 0.6477 0.7991
0.6454 0.6414 0.7960
0.8035 0.6343 0.7881
0.9396 0.6295 0.7782
1.0000 0.6268 0.7708
0.0091 0.7879 0.7802
0.0701 0.7908 0.7822
0.1840 0.7918 0.7819
0.3170 0.7908 0.7797
0.4652 0.7879 0.7757
0.6228 0.7830 0.7700
0.7818 0.7761 0.7627
0.9260 0.7691 0.7556
1.0000 0.7641 0.7507
0.0109 0.9052 0.7673
0.0813 0.9097 0.7672
0.1894 0.9124 0.7652
0.3152 0.9133 0.7613
0.4554 0.9124 0.7558
0.6050 0.9097 0.7487
0.7574 0.9053 0.7399
0.9034 0.8987 0.7338
1.0000 0.8928 0.7328
0.0112 1.0000 0.7627
0.0966 1.0000 0.7608
0.1995 1.0000 0.7570
0.3185 1.0000 0.7516
0.4509 1.0000 0.7445
0.5926 1.0000 0.7359
0.7378 1.0000 0.7258
0.8814 1.0000 0.7218
1.0000 1.0000 0.7180
0.0000 0.0002 0.9266
0.1044 0.0003 0.9277
0.2299 0.0005 0.9287
0.3664 0.0007 0.9294
0.5082 0.0010 0.9297
0.6498 0.0013 0.9295
0.7854 0.0017 0.9289
0.9095 0.0020 0.9280
0.9969 0.0022 0.9078
0.0000 0.1068 0.9290
0.0988 0.1044 0.9506
0.2280 0.1029 0.9497
0.3687 0.1015 0.9485
0.5149 0.1002 0.9470
0.6606 0.0989 0.9450
0.7994 0.0975 0.9428
0.9255 0.0962 0.9405
0.9991 0.1024 0.9222
0.0000 0.2313 0.9283
0.0940 0.2299 0.9464
0.2214 0.2267 0.9621
0.3658 0.2242 0.9592
0.5162 0.2218 0.9559
0.6660 0.2193 0.9523
0.8084 0.2169 0.9487
0.9369 0.2143 0.9450
1.0000 0.2190 0.9287
0.0000 0.3666 0.9240
0.0910 0.3665 0.9387
0.2148 0.3645 0.9511
0.3575 0.3604 0.9615
0.5118 0.3568 0.9568
0.6656 0.3531 0.9519
0.8119 0.3493 0.9471
0.9435 0.3456 0.9424
1.0000 0.3481 0.9281
0.0020 0.5072 0.9169
0.0891 0.5085 0.9284
0.2092 0.5077 0.9378
0.3480 0.5049 0.9452
0.5008 0.5000 0.9507
0.6586 0.4951 0.9450
0.8090 0.4901 0.9393
0.9442 0.4851 0.9338
1.0000 0.4851 0.9215
0.0060 0.6475 0.9083
0.0874 0.6500 0.9170
0.2036 0.6505 0.9236
0.3380 0.6490 0.9283
0.4868 0.6454 0.9314
0.6439 0.6397 0.9329
0.7986 0.6336 0.9267
0.9381 0.6274 0.9208
1.0000 0.6250 0.9106
0.0092 0.7819 0.8998
0.0849 0.7854 0.9059
0.1969 0.7870 0.9100
0.3268 0.7867 0.9124
0.4712 0.7843 0.9133
0.6245 0.7800 0.9127
0.7795 0.7737 0.9108
0.9239 0.7667 0.9047
1.0000 0.7620 0.8968
0.0110 0.9049 0.8929
0.0808 0.9091 0.8965
0.1885 0.9115 0.8983
0.3138 0.9121 0.8986
0.4535 0.9109 0.8975
0.6027 0.9079 0.8950
0.7548 0.9031 0.8912
0.9010 0.8965 0.8859
1.0000 0.8900 0.8806
0.0111 1.0000 0.8850
0.0962 1.0000 0.8870
0.1986 1.0000 0.8875
0.3172 1.0000 0.8865
0.4491 1.0000 0.8841
0.5904 1.0000 0.8805
0.7351 1.0000 0.8756
0.8759 1.0000 0.8694
1.0000 1.0000 0.8655
0.0000 0.0002 1.0000
0.1031 0.0003 1.0000
0.2251 0.0005 1.0000
0.3575 0.0008 1.0000
0.4954 0.0010 1.0000
0.6335 0.0014 1.0000
0.7666 0.0017 1.0000
0.8896 0.0020 1.0000
0.9971 0.0023 1.0000
0.0000 0.1077 1.0000
0.1003 0.1059 1.0000
0.2261 0.1053 1.0000
0.3630 0.1048 1.0000
0.5053 0.1043 1.0000
0.6475 0.1038 1.0000
0.7838 0.1033 1.0000
0.9086 0.1028 1.0000
0.9993 0.1022 1.0000
0.0000 0.2311 1.0000
0.0984 0.2303 1.0000
0.2225 0.2278 1.0000
0.3633 0.2262 1.0000
0.5098 0.2247 1.0000
0.6560 0.2232 1.0000
0.7957 0.2217 1.0000
0.9228 0.2201 1.0000
1.0000 0.2184 1.0000
0.0000 0.3650 1.0000
0.0983 0.3656 1.0000
0.2191 0.3642 1.0000
0.3580 0.3608 1.0000
0.5085 0.3582 1.0000
0.6587 0.3555 1.0000
0.8020 0.3528 1.0000
0.9318 0.3500 1.0000
1.0000 0.3471 1.0000
0.0021 0.5042 1.0000
0.0993 0.5062 1.0000
0.2167 0.5061 1.0000
0.3519 0.5039 1.0000
0.5006 0.4997 1.0000
0.6547 0.4958 1.0000
0.8019 0.4918 0.9997
0.9350 0.4878 0.9983
1.0000 0.4837 0.9976
0.0061 0.6432 1.0000
0.1004 0.6464 1.0000
0.2142 0.6475 1.0000
0.3453 0.6466 0.9989
0.4900 0.6437 0.9974
0.6429 0.6386 0.9959
0.7941 0.6336 0.9946
0.9311 0.6284 0.9936
1.0000 0.6233 0.9932
0.0093 0.7765 0.9977
0.1005 0.7807 0.9966
0.2105 0.7829 0.9954
0.3374 0.7832 0.9942
0.4778 0.7814 0.9932
0.6269 0.7777 0.9924
0.7778 0.7720 0.9919
0.9192 0.7660 0.9916
1.0000 0.7600 0.9916
0.0110 0.8989 0.9937
0.0990 0.9036 0.9930
0.2050 0.9066 0.9923
0.3274 0.9077 0.9918
0.4634 0.9071 0.9916
0.6084 0.9046 0.9918
0.7561 0.9003 0.9923
0.8986 0.8943 0.9931
1.0000 0.8877 0.9939
0.0110 1.0000 0.9918
0.0957 1.0000 0.9916
0.1978 1.0000 0.9916
0.3159 1.0000 0.9919
0.4474 1.0000 0.9925
0.5882 1.0000 0.9936
0.7326 1.0000 0.9953
0.8730 1.0000 0.9975
1.0000 1.0000 1.0000
